X: 318
T: Turkey Gobbler [1]
B: canberra pickers and fiddlers
B: tunes
M:C|
L:1/8
Q: 1/4=100
K:G
V:1 
"*"Bc|d2de dBGA|[D2B2]Bc BGAG|B+slide+[e3e3][e2e2][d2]|[c3e3]d [c2e2]AB|
c2cd cBAG|[FA]([F3A3]- [FA]G) FE|DEDF E2EF |A2G4|
[DB][Dc]|dBeB dBGA|BGAc BGAF|G2Bd efec|[de][c3e3]-[c2e2]AB|
c2 dB cBAG|[FA]([F3A3]- [FA]G) FE|D2D2 E2 FG|A2G4||
|:DF|G2Ac Bdef|[B4g4][d4b4]|[M:3/2][d3b3][da] [db][da][d2g2]-[d2g2]d2|
[M:C|] [e4e4]([ee][eg]) ec|d2c4cB|ABAG FE D2|a4 (ab)ag|
f2 (f3 a) fe|d2d2[A2e2]fg|a2g4:||
"*"Bc|dBeB dBGA|BGAc BGAF|G2Bd egec|d2[c3e3]AB|
% abcbook-tune_id 63da5934f6746c9a3945c82e
% abcbook-tune_composer_id 
% abcbook-link-0 https://www.youtube.com/watch?v=DXDki5c2g8Q
% abcbook-boost 0
% abcbook-difficulty 0
% abcbook-tags canberra pickers and fiddlers,old time tunes,© free
% abcbook-tablature 
% abcbook-transpose 
% abcbook-tuning GDAD
% abcbook-lastupdated 1675254068533
% abcbook-src-url https://tunebook.net/scrape/tunes.abc
% abcbook-soundfonts 
% abcbook-repeats 1
%%gchordfont "itim-music,Itim" 20

